X:1
T:Ischgl, 87.87 D
T:Ischgl, 87.87 D
T:Tyrolean Melody
T:Public Domain Courtesy of the Cyber Hymnal™
C:Tyrolean Melody
Z:Public Domain
Z:Courtesy of the Cyber Hymnal™
%%score ( 1 2 ) ( 3 4 )
L:1/8
Q:1/4=98
M:3/4
K:G
V:1 treble 
V:2 treble 
V:3 bass 
V:4 bass 
V:1
 D>D | [DG]2 [DG]2 [DB]>[DG] | [DA]2 [DA]2 [Ec]>[Ee] | d3 z B[Ec]>[DA] | [B,G]4 D>D | %5
 [DG]2 [DG]2 [DB]>[DG] | [DA]2 [DA]2 [Ec]>[Ee] | d3 z B[Gc]>[FA] | G4 [DB]>[Dc] | %9
 [Dd]2 [DB]2 [Dd]>[Dd] | [Ec]2 [DA]2 [Dc]>[Dc] | B3 z G[DB]>[EB] | [FA]4 D>D | %13
 [DG]2 [DG]2 [EA]>[DA] | [DB]2 [DB]2 [Ec]>[Fe] | d3 z B[Ec]>[FA] | G4 |] %17
V:2
 D>D | x6 | x6 | G2 G2 x3 | x4 D>D | x6 | x6 | G2 G2 x3 | G4 x2 | x6 | x6 | D2 G2 x3 | x4 D>D | %13
 x6 | x6 | G2 G2 x3 | G4 |] %17
V:3
 D,>D, | [G,,B,]2 [G,,B,]2 [G,,G,]>[B,,G,] | [D,F,]2 [D,F,]2 [C,G,]>[C,G,] | %3
 G,3 z G,[A,,G,]>[D,F,] | [G,,G,]4 D,>D, | [G,,B,]2 [G,,B,]2 [G,,G,]>[B,,A,] | %6
 [D,F,]2 [D,F,]2 [C,G,]>[C,G,] | G,3 z G,[A,,A,]>[D,A,] | [G,,B,]4 G,>[G,A,] | %9
 [G,B,]2 G,2 [B,,G,]>[B,,G,] | [A,,G,]2 [D,F,]2 [D,F,]>[D,F,] | G,2 [B,D]2 [G,B,]>[G,^C] x | %12
 [D,D]4 D,>D, | [G,,B,]2 [G,,B,]2 [C,G,]>[D,F,] | G,2 G,2 [C,G,]>[C,A,] | %15
 [B,,B,]2 [E,B,]2 [A,,A,]>[D,A,] x | [G,,B,]4 |] %17
V:4
 D,>D, | x6 | x6 | B,,2 E,2 x3 | x4 D,>D, | x6 | x6 | B,,2 E,2 x3 | x4 G,3/2 x/ | x2 G,2 x2 | x6 | %11
 G,2 x5 | x4 D,>D, | x6 | G,2 G,2 x2 | x7 | x4 |] %17

